assets/icons/color-phone.svg

<svg width="47" height="47" viewBox="0 0 47 47" fill="none" xmlns="http://www.w3.org/2000/svg">
<path d="M28.769 8.894C30.9408 9.31777 32.9368 10.3799 34.5014 11.9446C36.0661 13.5093 37.1283 15.5052 37.552 17.677M28.769 0C33.2814 0.501331 37.4893 2.52209 40.7017 5.73048C43.9141 8.93888 45.9401 13.1442 46.447 17.656M44.223 35.4V42.071C44.2255 42.6902 44.0987 43.3032 43.8506 43.8705C43.6026 44.4379 43.2387 44.9472 42.7825 45.3658C42.3262 45.7845 41.7875 46.1032 41.2009 46.3016C40.6143 46.5 39.9927 46.5737 39.376 46.518C32.5336 45.7747 25.9609 43.4368 20.186 39.692C14.8133 36.2779 10.2581 31.7228 6.84403 26.35C3.08619 20.5489 0.74771 13.9442 0.0180268 7.071C-0.0375053 6.45613 0.0356 5.83643 0.232688 5.25136C0.429776 4.66629 0.746529 4.12866 1.16278 3.67272C1.57903 3.21677 2.08566 2.85249 2.65041 2.60307C3.21516 2.35365 3.82565 2.22455 4.44303 2.224H11.114C12.1932 2.2134 13.2394 2.5956 14.0576 3.29935C14.8758 4.00311 15.4101 4.98038 15.561 6.049C15.8422 8.18469 16.3642 10.2817 17.117 12.3C17.4163 13.0958 17.4812 13.9608 17.304 14.7924C17.1268 15.624 16.7148 16.3874 16.117 16.992L13.293 19.816C16.4583 25.3812 21.0666 29.9892 26.632 33.154L29.456 30.33C30.0607 29.7322 30.824 29.3203 31.6556 29.143C32.4872 28.9658 33.3522 29.0307 34.148 29.33C36.1653 30.0829 38.2613 30.6053 40.396 30.887C41.4765 31.0388 42.4634 31.5825 43.1691 32.4146C43.8747 33.2468 44.2498 34.3093 44.223 35.4Z" fill="#91D301"/>
</svg>

<svg xmlns="http://www.w3.org/2000/svg" width="47" height="47" fill="none"><path fill="#91D301" d="M28.769 8.894a11.12 11.12 0 0 1 8.783 8.783M28.769 0a20.01 20.01 0 0 1 17.678 17.656M44.223 35.4v6.671a4.446 4.446 0 0 1-4.847 4.447 44 44 0 0 1-19.19-6.826A43.4 43.4 0 0 1 6.844 26.35 44 44 0 0 1 .018 7.071a4.447 4.447 0 0 1 4.425-4.847h6.671a4.45 4.45 0 0 1 4.447 3.825 28.6 28.6 0 0 0 1.556 6.251 4.45 4.45 0 0 1-1 4.692l-2.824 2.824a35.6 35.6 0 0 0 13.339 13.338l2.824-2.824a4.45 4.45 0 0 1 4.692-1 28.6 28.6 0 0 0 6.248 1.557 4.447 4.447 0 0 1 3.827 4.513"/></svg>
